COLOR/action 16/16/zoom-fit-height.svg

<svg height="16" width="16" xmlns="http://www.w3.org/2000/svg"><g stroke-width=".857621"><path d="m2 2.0000008v4.5008371h1.5008373v-2.9999998h2.9999998v-1.5008373zm7.5008371 0v1.5008373h2.9999999v2.9999998h1.499162v-4.5008371zm-7.5008371 7.5008372v4.499162h4.5008371v-1.499162h-2.9999998v-3zm10.500837 0v3h-2.9999999v1.499162h4.4991619v-4.499162z" fill="#1a7fd4"/><path d="m2 2.0000008v.4h4.5015622v-.4zm7.501562 0v.4h4.498437v-.4zm-7.501562 7.5015622v.4h1.5015624v-.4zm10.501562 0v.4h1.498437v-.4zm-8.9999996 2.999999v.4h2.9999998v-.4zm5.9999996 0v.4h3v-.4z" fill="#fff" opacity=".3"/><path d="m14 14v-.4h-4.501563v.4zm-7.5015628 0v-.4h-4.4984372v.4zm7.5015628-7.5015627v-.4h-1.501563v.4zm-10.5015625 0v-.4h-1.4984375v.4zm8.9999985-2.9999998v-.4h-2.999999v.4zm-5.9999988 0v-.4h-2.9999997v.4z" opacity=".2"/></g><g fill="#1a7fd4" transform="matrix(0 -.79999995 .79999995 0 2 14)"><path d="m3 6h1v3h-1z"/><path d="m5 6h1v3h-1z"/><path d="m7 6h1v3h-1z"/><path d="m9 6h1v3h-1z"/><path d="m11 6h1v3h-1z"/></g></svg>

<?xml version="1.0" encoding="UTF-8" standalone="no"?>
<svg
   xmlns:dc="http://purl.org/dc/elements/1.1/"
   xmlns:cc="http://creativecommons.org/ns#"
   xmlns:rdf="http://www.w3.org/1999/02/22-rdf-syntax-ns#"
   xmlns:svg="http://www.w3.org/2000/svg"
   xmlns="http://www.w3.org/2000/svg"
   xmlns:sodipodi="http://sodipodi.sourceforge.net/DTD/sodipodi-0.dtd"
   xmlns:inkscape="http://www.inkscape.org/namespaces/inkscape"
   height="16"
   width="16"
   version="1.1"
   id="svg4"
   sodipodi:docname="zoom-fit-height.svg"
   inkscape:version="0.92.4 (5da689c313, 2019-01-14)">
  <metadata
     id="metadata10">
    <rdf:RDF>
      <cc:Work
         rdf:about="">
        <dc:format>image/svg+xml</dc:format>
        <dc:type
           rdf:resource="http://purl.org/dc/dcmitype/StillImage" />
        <dc:title />
      </cc:Work>
    </rdf:RDF>
  </metadata>
  <defs
     id="defs8" />
  <sodipodi:namedview
     pagecolor="#ffffff"
     bordercolor="#808080"
     borderopacity="1"
     objecttolerance="10"
     gridtolerance="10"
     guidetolerance="10"
     inkscape:pageopacity="0"
     inkscape:pageshadow="2"
     inkscape:window-width="1920"
     inkscape:window-height="1016"
     id="namedview6"
     showgrid="false"
     inkscape:zoom="14.75"
     inkscape:cx="-3.2868895"
     inkscape:cy="8"
     inkscape:window-x="0"
     inkscape:window-y="27"
     inkscape:window-maximized="1"
     inkscape:current-layer="g839" />
  <path
     d="M 2,2.0000008 V 6.5008379 H 3.5008373 V 3.5008381 H 6.5008371 V 2.0000008 Z m 7.5008371,0 v 1.5008373 h 2.9999999 v 2.9999998 h 1.499162 V 2.0000008 Z M 2,9.500838 V 14 H 6.5008371 V 12.500838 H 3.5008373 v -3 z m 10.500837,0 v 3 H 9.5008371 V 14 H 13.999999 V 9.500838 Z"
     id="path2"
     inkscape:connector-curvature="0"
     style="fill:#1a7fd4;stroke-width:0.85762131" />
  <path
     style="opacity:0.3;fill:#ffffff;fill-opacity:1;stroke-width:0.85762131"
     d="m 2,2.0000008 v 0.4 h 4.5015622 v -0.4 z m 7.501562,0 v 0.4 h 4.498437 v -0.4 z M 2,9.501563 v 0.4 h 1.5015624 v -0.4 z m 10.501562,0 v 0.4 h 1.498437 v -0.4 z m -8.9999996,2.999999 v 0.4 h 2.9999998 v -0.4 z m 5.9999996,0 v 0.4 h 3 v -0.4 z"
     id="path817"
     inkscape:connector-curvature="0" />
  <path
     id="path822"
     d="M 14,14 V 13.6 H 9.498437 V 14 Z M 6.4984372,14 V 13.6 H 2 V 14 Z M 14,6.4984373 v -0.4 h -1.501563 v 0.4 z m -10.5015625,0 v -0.4 H 2 v 0.4 z M 12.498436,3.4984375 v -0.4 H 9.498437 v 0.4 z m -5.9999988,0 v -0.4 H 3.4984375 v 0.4 z"
     style="opacity:0.2;fill:#000000;fill-opacity:1;stroke-width:0.85762131"
     inkscape:connector-curvature="0" />
  <g
     id="g839"
     transform="translate(23.427316,-8.7082775)">
    <g
       transform="matrix(0,-0.79999995,0.79999995,0,-21.427316,22.708278)"
       id="g14551"
       style="fill:#1a7fd4;fill-opacity:1">
      <rect
         style="opacity:1;vector-effect:none;fill:#1a7fd4;fill-opacity:1;stroke:none;stroke-width:2;stroke-linecap:round;stroke-linejoin:round;stroke-miterlimit:4;stroke-dasharray:none;stroke-dashoffset:0;stroke-opacity:1"
         id="rect14132"
         width="1"
         height="3"
         x="3"
         y="6" />
      <rect
         style="opacity:1;vector-effect:none;fill:#1a7fd4;fill-opacity:1;stroke:none;stroke-width:2;stroke-linecap:round;stroke-linejoin:round;stroke-miterlimit:4;stroke-dasharray:none;stroke-dashoffset:0;stroke-opacity:1"
         id="rect14132-2"
         width="1"
         height="3"
         x="5"
         y="6" />
      <rect
         style="opacity:1;vector-effect:none;fill:#1a7fd4;fill-opacity:1;stroke:none;stroke-width:2;stroke-linecap:round;stroke-linejoin:round;stroke-miterlimit:4;stroke-dasharray:none;stroke-dashoffset:0;stroke-opacity:1"
         id="rect14132-9"
         width="1"
         height="3"
         x="7"
         y="6" />
      <rect
         style="opacity:1;vector-effect:none;fill:#1a7fd4;fill-opacity:1;stroke:none;stroke-width:2;stroke-linecap:round;stroke-linejoin:round;stroke-miterlimit:4;stroke-dasharray:none;stroke-dashoffset:0;stroke-opacity:1"
         id="rect14132-7"
         width="1"
         height="3"
         x="9"
         y="6" />
      <rect
         style="opacity:1;vector-effect:none;fill:#1a7fd4;fill-opacity:1;stroke:none;stroke-width:2;stroke-linecap:round;stroke-linejoin:round;stroke-miterlimit:4;stroke-dasharray:none;stroke-dashoffset:0;stroke-opacity:1"
         id="rect14132-3"
         width="1"
         height="3"
         x="11"
         y="6" />
    </g>
  </g>
</svg>
